X: 0804
T: The Lovers' Knot
P: Link him Dodie
C:From Gow's First Coll., 1784
R:Strathspey (8x40) ABABB
B:RSCDS 8-4
Z:Anselm Lingnau <anselm@strathspey.org>
M:4/4
L:1/8
K:A
A|"A"Ae e>d c<A c2|"G"B=g g>d B<=G B<d|\
  "A"A/B/c/d/ e>A c<A c2|"Fm"A<a "E7"g<b "A"a<A c<e|
  "A"Ae e>d c<A c2|"G"B=g g>d B<=G B<d|\
  "A"A/B/c/d/ e>A c<A c2|"Fm"A<a "E7"g<b "A"a<A c<e||
  "A"a/g/f/e/ ca ea c2|"G"B=g g>d B=G B<g|\
  "A"a/g/f/e/ c<a e<a c<a|"Fm"A<a c<a "A"ec c<e|
  "A"a/g/f/e/ "D"f>d "A"e>d c2|"G"B=g g>d B<=G B<d|\
  "A"A/B/c/d/ e>A cA c2|"Fm"A<a "E7"g<b "A"a<A c<e|]
%%center Book08/0804-Lovers_Knot-AL.abc

%%sep 1 1 500
%%sep 1 1 500

